X: 14196
T: Fruit And The Snoot, The
R: jig
M: 6/8
K: Aminor
EAA cABc|Ffed cBd|eAA cABc|FE_E=E ^GEB:|
|:eAA eA^fA|eAA ^fA^gA|ab^g a=g^fe|^de^fg fed:|

